!!!!SEGMENT: pl-kc--40102-iii-1-saf--001-007_zielenski-mikolaj--offertoria-totius-anni-in-festo-s-siluestri-papae-inveni-david.krn
!!!cenid: 16xx:1486
!!!COM: Zieleński, Mikołaj
!!!COM-rismid: pe30013481
!!!CDT: <1611->1611
!!!CNT: Polish
!!!GTL: Offertoria totius anni
!!!OTL: In festo S. Siluestri Papae/Inveni David
!!!OMV: 007
!!!PDT: 1611
!!!AGN:
!!!SMS-siglum: PL-Kc
!!!SMS-shelfmark: 40102 III/1 Saf.
!!!SMS-shelfwork: 001-007 G
!!!SMS-variant:
!!!SMS-altvar:
!!!NIFC-rismid: 990069886
!!!URL-scan: https://cyfrowe.mnk.pl/dlibra/publication/24235/edition/23926/content?ref=desc
!!!ONB-nifc: UWAGA: str. 9. Uwaga: W xml metrum 2/1 do źródłowego C| i odpowiednio 3/1 do 3/2
!!!AIN: 4 organ
!!!key:
**kern	**kern	**kern	**kern
*group1	*group1	*group1	*group1
*part4	*part3	*part2	*part1
*staff4	*staff3	*staff2	*staff1
*I""Organo	*I""Organo	*I""Organo	*I""Organo
*I''org	*I''org	*I''org	*I''org
*Iorgan	*Iorgan	*Iorgan	*Iorgan
*ICklav	*ICklav	*ICklav	*ICklav
*clefF4	*clefC1	*clefF4	*clefC1
*k[b-]	*k[b-]	*k[b-]	*k[b-]
*g:	*g:	*g:	*g:
*M2/1	*M2/1	*M2/1	*M2/1
*met(c|)	*met(c|)	*met(c|)	*met(c|)
=1	=1	=1	=1
!	!	!LO:TX:a:t=Inueni Dauid.	!LO:TX:a:t=In feſto S. Siluestri Papae. A 8.
1D	1a	00r	00r
2BB-/	2g/	.	.
2AA/	2a\	.	.
=2-	=2-	=2-	=2-
4GG/	1b-	.	.
4AA/	.	.	.
4BB-/	.	.	.
4GG/	.	.	.
2D/	2a\	.	.
[>2BB-/	[2dd\	.	.
=3	=3	=3	=3
2BB-/]	2dd\]	0r	0r
2F\	2cc\	.	.
4G\	1b-	.	.
4GG/	.	.	.
4AA/	.	.	.
4C/	.	.	.
=4-	=4-	=4-	=4-
1D	1a	1D	1a
1r	1r	2BB-/	2g/
.	.	2AA/	2a\
=5	=5	=5	=5
00r	00r	4GG/	1b-
.	.	4AA/	.
.	.	4BB-/	.
.	.	4GG/	.
.	.	2D/	2a\
.	.	2BB-/	1dd\
=6-	=6-	=6-	=6-
.	.	2F\	.
.	.	4G\	2cc\
.	.	4GG/	.
!	!	!LO:N:vis=4	!
.	.	2BB-/	1b-
.	.	.	.
!	!	!LO:N:vis=4	!
.	.	2C/	.
=7	=7	=7	=7
2r	2r	1D	1a
4r	2dd\	.	.
4D/	.	.	.
2AA/	2cc#X\	2r	2r
2D/	2dd\	2D/	4r
.	.	.	4dd\
=8-	=8-	=8-	=8-
1r	1r	2A\	2cc#X\
.	.	2D/	2dd\
!	!	!	!LO:N:acc=#
2r	2r	1G	1bn
2GG/	2g/	.	.
=9	=9	=9	=9
2C/	2g/	1D	1cc
2FF/	2a\	.	.
1C	1g	1r	1r
=10-	=10-	=10-	=10-
2FF/	2a\	2r	2r
1FF	1a	2.C/	2.cc\
.	.	4AA/	8dd\
.	.	.	8cc\
2GG/	2d/	2D/	2b-\
=11	=11	=11	=11
0AA	0a	2C#X/	2a\
.	.	2D/	2.dd\
.	.	1E	.
.	.	.	8cc#X\
.	.	.	8b-\
.	.	.	2cc#\
=12-	=12-	=12-	=12-
1DD	1a	2D/	2dd\
.	.	2.D/	2.dd\
1r	1r	.	.
.	.	4D/	4dd\
.	.	2G\	2dd\
*custos:BB	*custos:f	*custos:E	*custos:cc
!!LO:LB:g=original
=13	=13	=13	=13
!	!	!	!LO:N:vis=2
00r	00r	2E-X\	4cc\
!	!	!	!LO:N:vis=2
.	.	.	4cc\
.	.	2D/	2dd\
.	.	1C	1ee-X
=14-	=14-	=14-	=14-
.	.	2.B-\	1dd
.	.	4A\	.
!	!	!LO:N:vis=4	!
.	.	2G\	2r
.	.	.	.
!	!	!LO:N:vis=4	!
.	.	2F\	[y2ff\
=15	=15	=15	=15
!	!	!	!LO:N:xstem:cue
0r	0r	4E-X\	4ff\]
.	.	4D/	4ff\
.	.	4C/	4ee-X\
.	.	4BB-/	4dd\
.	.	2AA/	2cc\
.	.	2BB-/	2.b-\
=16-	=16-	=16-	=16-
1r	1r	2F\	.
.	.	.	8a\
.	.	.	8g\
.	.	2FF/	2a\
2r	2r	1BB-	1b-
[y2BB-/	[y2f/	.	.
=17	=17	=17	=17
!LO:N:xstem:cue	!LO:N:xstem:cue	!	!
4BB-/]	4f/]	00r	00r
4BB-/	4f/	.	.
2GG/	2g/	.	.
2D/	2a\	.	.
2BB-/	2b-\	.	.
=18-	=18-	=18-	=18-
1AA	1cc	.	.
2GG/	2.b-\	.	.
[2G\	.	.	.
.	4a\	.	.
=19	=19	=19	=19
4G\]	2g/	00r	00r
4F\	.	.	.
4E-X\	2.ee-X\	.	.
4D/	.	.	.
4C/	.	.	.
4BB-/	4dd\	.	.
4AA/	4cc\	.	.
4GG/	4b-\	.	.
=20-	=20-	=20-	=20-
2FF/	4a\	.	.
.	8b-\	.	.
.	8a\	.	.
2GG/	4g\	.	.
.	8a\	.	.
.	8g\	.	.
2.D/	2f/	.	.
.	[y2a\	.	.
4C/	.	.	.
=21	=21	=21	=21
!	!LO:N:xstem:cue	!	!
2BB-/	4a\]	0r	0r
.	8g#X/	.	.
.	8f/	.	.
4AA/	2.g#/	.	.
4GG/	.	.	.
1D\	.	.	.
.	8f#X/	.	.
.	8e/	.	.
.	2f#/	.	.
=22-	=22-	=22-	=22-
1GG	1g#	2r	2r
.	.	1A	1dd
1r	1r	.	.
.	.	2C/	2cc\
=23	=23	=23	=23
0r	0r	2G\	2b-\
.	.	2D/	2a\
.	.	1B-	1dd
=24-	=24-	=24-	=24-
2r	2r	1A	1cc#X
1AA	1g	.	.
.	.	1r	1r
2EE/	2g/	.	.
=25	=25	=25	=25
2BB-/	2g/	0r	0r
2DD/	2f/	.	.
1AA	1e	.	.
=26-	=26-	=26-	=26-
1DD	1d	2r	2r
.	.	1D	1a
1r	1r	.	.
.	.	2AA/	2cc\
=27	=27	=27	=27
!	!	!	!LO:N:vis=2
00r	00r	2BB-/	4b-\
.	.	.	4a\
.	.	2FF/	4a\
.	.	.	8g/
.	.	.	8f/
.	.	1C	1g
=28-	=28-	=28-	=28-
.	.	2.FF/	2f/
.	.	.	2a\
.	.	4F\	.
.	.	4C/	4g/
.	.	8C/	8g/
.	.	8C/	8g/
.	.	4C/	4g/
.	.	4AA/	4a\
=29	=29	=29	=29
1r	1r	1D	1f
2r	2r	1C	1e
2C/	2cc\	.	.
=30-	=30-	=30-	=30-
4FF/	4cc\	0r	0r
8FF/	8cc\	.	.
8FF/	8cc\	.	.
4FF/	4cc\	.	.
4GG/	4b-\	.	.
1AA	1a	.	.
=31	=31	=31	=31
1D	1a	2r	2r
.	.	1D	1dd
1r	1r	.	.
.	.	2AA/	2cc\
=32-	=32-	=32-	=32-
0r	0r	2BB-/	2b-\
.	.	2FF/	1a
.	.	[1GG	.
.	.	.	4g/
.	.	.	4f/
=33	=33	=33	=33
1r	1r	1GG]	2g/
.	.	.	2g/
2r	2r	2D/	2a\
1BB-/	2.b-\	1D\	1ff\
=34-	=34-	=34-	=34-
.	.	.	.
.	4g/	.	.
2C/	2cc\	2C/	2ee\
2GG/	2bn\	2D/	2dd\
2CC/	[<2cc\	2C/	2ee\
=35	=35	=35	=35
1GG	4cc\]	1D	1dd
!	!LO:N:acc=#	!	!
.	8bn\	.	.
.	8a\	.	.
.	2b\	.	.
2.CC/	2cc\	1C	1ee
.	2g/	.	.
4C/	.	.	.
=36-	=36-	=36-	=36-
4AA/	4cc\	0r	0r
8AA/	8cc\	.	.
8AA/	8cc\	.	.
4BB-/	4b-y\	.	.
4GG/	4b-\	.	.
1D	4a\	.	.
.	4b-\	.	.
.	2a\	.	.
*custos:GG	*custos:a	*custos:G	*custos:dd
!!LO:LB:g=original
=37	=37	=37	=37
1GG	2a\	2r	2r
.	1g	2G\	2dd\
0r	.	4C/	4ee-X\
*	*	*	*Xtuplet
.	.	8C/	12ee-\
.	.	.	12ee-\
.	.	8C/	.
.	.	.	12ee-\
.	0r	4F\	4cc\
.	.	4BB-/	4dd\
=38-	=38-	=38-	=38-
.	.	2F\	1cc
.	.	2FF/	.
2r	.	2.BB-/	2b-\
!	!LO:N:vis=2	!	!
2BB-/	4r	.	2dd\
!	!LO:N:vis=2	!	!
.	4b-\	4D/	.
=39	=39	=39	=39
2GG/	2dd\	2D/	2b-\
4GG/	4dd\	4D/	4b-\
4GG/	4dd\	4D/	4b-\
2AA/	2a\	2C#X/	4cc#X\
.	.	.	4a\
2DD/	2a\	2D/	2.dd\
=40-	=40-	=40-	=40-
1AA	1a	1E	.
.	.	.	8cc#\
.	.	.	8b-\
.	.	.	2cc#X\
2DD/	2a\	1D	1dd
[2D/	[<2a\	.	.
=41	=41	=41	=41
2D/]	2a\]	0r	0r
2.AA/	2.cc\	.	.
4AA/	4cc\	.	.
2BB-/	2b-\	.	.
=42-	=42-	=42-	=42-
1FF	1a	1r	1r
1C	1g	2r	2r
.	.	[2C/	[<2cc\
=43	=43	=43	=43
00r	00r	2C/]	2cc\]
.	.	2.c\	2.ee-X\
.	.	4c\	4ee-\
.	.	2B-\	2dd\
=44-	=44-	=44-	=44-
.	.	1A	1cc
.	.	2G\	2bn\
.	.	4G\	4dd\
.	.	4G\	4dd\
=45	=45	=45	=45
1r	1r	4E-\	4g/
.	.	4C/	4cc\
!	!	!	!LO:N:acc=#
.	.	2G\	2bn\
2r	2r	1C	1cc
4C/	4g/	.	.
4C/	4g/	.	.
=46-	=46-	=46-	=46-
4AA/	4cc\	1r	1r
4FF/	4a\	.	.
2C/	2g/	.	.
2FF/	2a\	2r	2r
[2FF/	[<2cc\	[2C/	2ff\
=47	=47	=47	=47
2FF/]	2cc\]	2C/]	2ff\
2.C/	2.cc\	2.E\	2.ee\
4C/	4cc\	4C/	4ee\
2GG/	2b-\	2D/	2dd\
=48-	=48-	=48-	=48-
1DD	1dd	1D	1ff
1AA	1cc#X	2.E\	2.ee\
.	.	4A\	4cc#X\
=49	=49	=49	=49
0r	0r	4A\	4cc\
.	.	4F#X\	4dd\
!	!	!	!LO:N:acc=#
.	.	4G\	4bn\
.	.	4D/	2dd\
.	.	2A\	.
.	.	.	8cc#X\
.	.	.	8b\
.	.	2AA/	2cc#\
=50-	=50-	=50-	=50-
4r	4r	1D	1dd
2D/	2f#X/	.	.
!LO:N:acc=#	!	!	!
4BBn/	4g/	.	.
4C/	4e/	1r	1r
4GG/	4g/	.	.
2D/	2f#X/	.	.
=51	=51	=51	=51
1GG	1g	1r	1r
2r	2r	2r	2r
!	!LO:N:acc=#	!	!
1GG/	1bn\	1D\	2.dd\
=52-	=52-	=52-	=52-
.	.	.	.
.	.	.	8cc\
.	.	.	8dd\
2EE/	2cc\	2C/	4ee\
.	.	.	4dd\
2FF/	2a\	2C/	4cc\
.	.	.	4a\
2DD/	2a\	2D/	2dd\
=53	=53	=53	=53
0AA	0a	1E	2dd\
.	.	.	4cc#X\
.	.	.	4b-\
.	.	2E\	4cc#X\
.	.	.	2dd\
.	.	2AA/	.
.	.	.	4cc#X\
=54-	=54-	=54-	=54-
2DD/	2a\	2AA/	2dd\
1GG	1b-	4GG/	1dd
.	.	4AA/	.
.	.	4BB-/	.
.	.	4C/	.
2DD/	2a\	2D/	2dd\
=55	=55	=55	=55
2GG/	2b-\	2D/	2dd\
2D/	2a\	4D/	2a\
.	.	4C/	.
0.GG	4g/	4BB-/	2.b-\
.	4f/	4AA/	.
.	4g/	4GG/	.
.	4a\	4AA/	4a\
=56-	=56-	=56-	=56-
.	2.b-\	2.BB-/	4g/
.	.	.	4d/
.	.	.	2.dd\
.	4a\	4C/	.
.	1g	1D	.
.	.	.	4cc\
.	.	.	2b-\
=57-	=57-	=57-	=57-
0DDl	0al	0Dl	0al
==	==	==	==
*-	*-	*-	*-
!!!system-decoration: *
!!!RDF**kern: > = above
!!!RDF**kern: < = below
!!!RDF**kern: l =terminal long
!!!ENC: Anastazja Marusiak
!!!END: 2021-12-10
!!!ENC: Marta Lawrence
!!!END: 2021-12-18
